www/assets/icons/spellcheck.svg

<svg width="24" height="24" viewBox="0 0 24 24" xmlns="http://www.w3.org/2000/svg" fill='currentColor'><path d="M11.72 15.25H13.81L8.69998 2.25H6.83998L1.72998 15.25H3.81998L4.93998 12.25H10.58L11.72 15.25ZM5.69998 10.25L7.76998 4.73L9.83998 10.25H5.69998ZM20.86 10.84L12.77 18.93L9.09998 15.25L7.68998 16.66L12.78 21.75L22.27 12.25L20.86 10.84Z"/></svg>

<svg xmlns="http://www.w3.org/2000/svg" width="24" height="24" viewBox="0 0 24 24" fill='currentColor'><path d="M11.72 15.25h2.09l-5.11-13H6.84l-5.11 13h2.09l1.12-3h5.64zm-6.02-5 2.07-5.52 2.07 5.52zm15.16.59-8.09 8.09-3.67-3.68-1.41 1.41 5.09 5.09 9.49-9.5z"/></svg>
